X:1
T:Cathleen ni Houlihan
T:Cathleen Ni Houlihan
T:Ivor Gurney
T:W.B. Yeats
C:Ivor Gurney
Z:W.B. Yeats
%%score 1 { ( 2 5 ) | ( 3 4 6 7 ) }
L:1/8
Q:1/4=120
M:4/4
K:C
V:1 treble nm="Voice"
V:2 treble nm="Piano"
V:5 treble 
V:3 bass 
V:4 bass 
V:6 bass 
V:7 bass 
V:1
"^Allegro con moto" z8 | z4 z2 z!p! (E | E2 C2 D2 E2 |!<(! (3(F2 G2) F2 A2!<)! B2 | %4
w: |The|old brown thorn- trees|break * in two high|
!>(! !tenuto!E !tenuto!E3 !tenuto!D!>)! !tenuto!D3 | !tenuto!E8- | E2) z2 z4 | (3(E2 E2 E2 F A3 | %8
w: o- ver Cum- men|Strand,|_|Un- der a bit- ter|
!<(! G4 B2 c2!<)! | (3A2 B2 c2 (c2 d2) | A8- | A4) z2!mp! (A2 | _B!<(! d3 (3d2 c2 =B2!<)! | %13
w: black wind that|blows from the left _|hand;|_ Our|cour- age breaks like an|
 A2!>(! c2- c2 dc | _e2!>)! _E4) (F2 | C4- C) z (G2 |!mf! _e2 d2 (3_B2 c2 d2 | %17
w: old tree _ in a|black wind and|dies, _ But|we have hid- * den|
 c2 _B2 G2)!<(! (_A2 | _B2 _E2-!<)! (3E2 G2 _B2 |!f! _c6)"^dim." (=B2 | c4 F4- | %21
w: in our hearts the|flame out _ of the|eyes Of|Cath- leen,|
 F2 F2) (3(F2 !courtesy!=G2 A2 | c3!p! B A4- | A4- A) z z2 | z8 | z8 | z8 | z4 z2 z!p! (!tenuto!E | %28
w: _ the daugh- ter of|Hou- li- han.|_ _||||The|
 !tenuto!E2!<(! C2 D2 E2!<)! | (3(F2 G2) F2 A2) (B2 | E!>(! E3 D3 D!>)! | E8- | E2) z2 z2!<(! (E2 | %33
w: wind has bund- led|up _ the clouds high|o- ver Knock- na-|rea,|_ And|
 F2 G2 (3(E2 F2) G2 | _A2 _B2 (3(G2 A2)) (B2!<)! |!f! c8- | c2 F2 (3(A2 _B2) c2 | %37
w: thrown the thun- * der|on the stones * for|all|_ that Mae- ve can|
 _d2) z2!f! (=e4- |!<(! (3e2 ^d2 e2 (3(^c2 d2) c2!<)! |!ff! =f2"^dim." _e2 (3(c2 _B2)) c2 | %40
w: say. Ang-|* ers that are _ like|nois- y clouds _ have|
 F2 G2 (3(_A2 G2) F2 |!mf!!>(! (_B6!>)! =B2 |!p! c3 _B _A2 G2 | %43
w: set out hearts _ a-|beat; But|we have all bent|
[M:3/2]!<(! F4!<)! (G2 F2) _A2)!p! (_B2 |!<(! F3 F!<)! (^G4 =A2) =B2) | c8- c2 (=A2 | %46
w: low and _ low and|kissed the qui- * et|feet _ Of|
[M:4/4] d4 D4- | D2) (!tenuto!E2 (3!tenuto!F2 !tenuto!=G2 !tenuto!F2 |!>(! c3!>)! B A4- |!pp! A8) | %50
w: Cath- leen,|_ the daugh- ter of|Hou- li- han.|_|
 z8 | z8 | z8 | z4 z2!pp! z (_E | _E _C3 _D2 _E2 | (3(_F2 _G2) F2 _A2) (_B2 | _E2 E2 _D3 E | _E8- | %58
w: |||The|yel- low pool has|o- * ver- flowed high|up on Clooth- na-|Bare,|
 E2) z2 (3z2 (_E2 E2 |"^cresc." _F4 _A2 _B2 | %60
w: _ For the|wet winds are|
 _G2 _B2)"^cresc." (3(!tenuto!B2 !tenuto!_c2 !tenuto!_A2 | (_c2 =c4 ^c2- | %62
w: blow- ing out of the|cling- * *|
!<(! c2 =d2- (3d2 ^d2) =e2!<)! |!ff! e8-) | e4- e z!mf! (e2 | e c3 (3(d2 e2) c2 | %66
w: * * * * ing|air;|_ _ Like|hea- vy flood- * ed|
"^dim." _B2 c2- c2) (_A2 | F _A2) z!<(! (F2 _E2 | _D2!<)! _E2!>(! (3(F2 E2) D2!>)! | _E6) (E2 | %70
w: wa- ters _ our|bo- dies and _|_ _ _ _ our|blood; But|
[M:3/2]!<(! =E D!<)! C D E8 |[M:4/4] (3E2 D2) (C2!<(! E2 F2 | %72
w: pu- rer than a tall|can- dle be- fore the|
[M:3/2] A2 B2!<)! A2 c2!ff! (3(A2 c2) d2 |[M:4/4] A6)!f! (d2 | d4 F4- | %75
w: Ho- * * * * * ly|Rood Is|Cath- leen,|
!>(! F2) (!courtesy!=G2 (3!tenuto!G2 !tenuto!A2 !tenuto!G2!>)! |!pp! c3 B A4- | A8-) | A2 z2 z4 | %79
w: _ the daugh- ter of|Hou- li- han.|_||
 z8 |] %80
w: |
V:2
 z!p! E z C z D z E | z E z C z D z E | z E z C z D z E | z F z [DG] z [DA] z F | z [CE] z C x4 | %5
 z8 | z8 | z E z E z F z [DA] | z [G,B,G] z [G,B,G] z [B,GB] z [CEc] | %9
 z [A,DA] z [A,FA] z [A,FA] z [A,DF] | z [A,DA] z [A,DG] z [A,DA] z F | %11
 z!<(! E z D z C!<)! z!mp! [CEc] |!<(! z [DF_B]2 [DFd]2 [EBd]!<)! [_B,EB]2 | %13
 z [A,EA]2 [CEc]2 [CE-c][DEd][Cc] | z [_EG_e]2 [CE]2 [=B,E]2 [_A,CF] | %15
 z!<(! [G,C] z D z _E!<)! z [CG] |!mf! [CGc]4 [_B,DG_B]4 | [G,CG]4 [G,DG]4 | %18
!<(! [_B,DG_B]4!<)! [G,_D_E]4 |!f! (_B2 _A2!>(! G2)!>)! [=B,=D^G=B]2 |!mp! [CFc]8 | [^G,B,F]8 | %22
 z8 |!p! [eae']3 [dad'] [cac']4- | [ac']6 z2 | z8 | z8 | z8 | z!p! E z C z D z E | %29
 z F z [DG] z [DA] z [DF] | z [CE] z E z D z B, | z C z E z C z E | z E z C z D z E | %33
 z"_cresc." (F,[A,DF]F,) (3E2 F2 G2 | z (_A,[CF_A]A,) (3[G,G]2 [A,A]2 [B,B]2 | %35
 [C_E_Ac](CE!f![Ac])!<(! (3[Cc]2 [_D_d]2 [_E_e]2!<)! |!>(! [F=Acf]4!>)! [FAcf]4 | %37
 (3!tenuto![F_Bf]2 !tenuto!F2 !tenuto!B2 (3!tenuto![EA^ce]2 !tenuto!E2 !tenuto![Ace]2 | %38
!<(! (3!tenuto![A^ce]2 !tenuto!E2 !tenuto![Ace]2 (3!tenuto![Ace]2 !tenuto!E2 !tenuto![Ace]2!<)! | %39
!ff! (3!tenuto![F_A=cf]2 !tenuto!F2"_dim." !tenuto![_EG_B]2 (3!tenuto![CAc]2 !tenuto!F2 !tenuto![_A,CA]2 | %40
 !tenuto!F4 (3(F2 C2 [F_A]2) |!<(! [_B,_B]2 [=B,=B]2!<)!!>(! [Ff]2 [_E_e]2!>)! | %42
!p! ([_E_A_e]4 =E4) |[M:3/2] F4- F4- F2 (=E2 | F4 [=D^G]4 [A,^FA]2 [=B,^G=B]2) | %45
!<(! (B2 A2 ^G2 B2!<)!!>(! A4)!>)! |[M:4/4]!mp! [DF]8 |!pp! [df^gd']8 | z8 | %49
!pp! !tenuto![eae']3 !tenuto![dad'] !tenuto![cac']4- | [cac']6 z2 | z8 | x8 | x8 | x8 | x8 | z8 | %57
 x8 | z _E z _C z _D z E |"_cresc." z _F2 [_A,F_A]2 ([A,FA]2 [B,F_B]) | %60
 z ([_G,_E_G]2 [B,G_B]2) ([_CEB]2 [CE_c]) | ([_C_c]2 [=C=c]4 [^C^c]2) | %62
 ([^C^c]2 [Dd]2) (3[=D=E^Gd]2 [^D^d]2 [Ee]2 | [E^Ge]8 | %64
!>(! !tenuto!^G2 !tenuto!E2 !tenuto!^D2 !tenuto!^C2!>)! |!p! [=ceg=c'e']4 [d^f_bd']4 | %66
 [ce_ac']4 [E_Be]4 | [FA]3 z (D4- | D8- | D4 C4) |[M:3/2] x12 |[M:4/4] x8 |[M:3/2] x12 | %73
[M:4/4] z4!mp! !tenuto![A,DA]4 | x8 | x8 | z8 | z4 z2!pp! ([eae']2- | %78
 [eae']4 !tenuto![dad']2 !tenuto![cac']2- | [cac']4) z4 |] %80
V:3
 x [E,A,] x [E,A,] x [E,A,] x [E,A,] | x [E,A,] x [E,A,] x [E,A,] x [E,A,] | %2
 x [E,A,] x [E,A,] x [E,A,] x [E,A,] | x A, x A, x A, x [F,A,] | x E, x [E,A,] x [D,A,] x [D,A,D] | %5
 x [E,A,C] x [E,A,E] x [D,A,D] x [F,A,F] | x [E,CE] x [E,A,E] x [D,A,D] x [F,A,F] | %7
 x [E,A,] x [E,A,] x [F,A,] x A, | (E,2 D,2 C,2 A,,2) | (F,2 E,2 F,2 D,2) | (F,2 E,2 F,2 D,2) | %11
 x [E,A,] x [E,A,] x [E,A,] x2 | G,4{/C,,} [C,,C,]4 | F,4 [F,,A,]4 | %14
 ([E,,C,]2 [_E,,_E,]2 [_A,,_A,]2 [_A,,,A,,]2 | x C, x [D,G,] x [_E,G,] [_E,,E,]2) | %16
 [C,,G,,_E,]4 [D,,G,,D,]4 | [G,,_E,]4 [_B,,,_B,,D,]4 | [_E,,,_E,,]4 [E,,_B,,_E,]4 | %19
 (_B,2 _A,2 G,2) [=E,,=B,,=E,]2 | [D,,A,,F,]8 | [D,,A,,D,F,]8 | z8 | z8 | z8 | z8 | %26
!p! z!mp! [E,A,E] z [E,A,C] z [E,A,D] z [E,A,E] | z [E,A,E] z [E,A,C] z [E,A,D] z [E,A,E] | %28
 x [E,A,] x [E,A,] x [E,A,] x [E,A,] | x [F,A,] x A, x A, x A, | %30
 x E, x [E,B,] x [D,A,] x [B,,F,A,] | x [E,A,] x [E,A,] x [E,A,] x [E,A,] | %32
 x [E,A,] x [E,A,] x [E,A,] x [E,A,] |!ped! (D,2- [D,,D,]2 (3C,,2!ped-up! D,,2 E,,2) | %34
!ped! ([F,,,F,,]2 [F,,C,]2)!ped-up!!ped! (3([_E,,_B,,]2 F,,2 G,,2)!ped-up! | %35
!ped! [_A,,E,_A,](A,,E,A,)!ped-up!!ped! ([A,,E,A,]2!ped-up!!ped! [_G,,E,]2!ped-up! | %36
!ped! [F,,C,=A,]4) [F,C]4 | %37
!ped! (3!tenuto![_B,,F,_D]2!ped-up! !tenuto!F,2 !tenuto!D2!ped-up!!ped! (3!tenuto![A,,,E,,A,,]2 !tenuto!E,,2 !tenuto![A,,,A,,]2 | %38
 (3!tenuto![A,,,A,,]2 !tenuto!E,,2 !tenuto![A,,,A,,]2 (3!tenuto![A,,,A,,]2 !tenuto!E,,2 !tenuto![A,,,A,,]2 | %39
!ped! (3!tenuto![F,,,F,,]2 !tenuto!F,,2 !tenuto![F,,,C,,]2!ped-up!!ped! (3!tenuto!F,,2 !tenuto![C,,_A,,]2 !tenuto![F,,C,]2!ped-up! | %40
!ped! [F,_A,]4!ped! (3[F,A,]2!ped-up! !tenuto!C,2 !tenuto![C,F,]2!ped-up! | %41
!ped! [_D,F,]4!ped! [_E,_D]4!ped-up! |!ped! [_A,,_E,C]4 [=E,_B,]4!ped-up! | %43
[M:3/2] [F,_A,]4- [F,A,]4- [F,A,]2 [=E,_B,-]2 | [F,B,]4 ^G,4 [E,,B,,E,]4 | %45
 (B,2 A,2 ^G,2 B,2 A,2) [F,,C,F,]2 |[M:4/4] [_B,,,_B,,F,]8 | x8 | z8 | x8 | x8 | z8 | %52
 z!pp! [_E,_A,_E] z [E,A,_C] z [E,A,_D] z [E,A,E] | z [_E,_A,_E] z [E,A,_C] z [E,A,_D] z [E,A,E] | %54
 z [_E,_A,_E] z [E,A,_C] z [E,A,_D] z [E,A,E] | %55
 z [_E,_A,_F] z[I:staff -1] [_A,_D_G][I:staff +1] z[I:staff -1] [A,D_A][I:staff +1] z [E,A,F] | %56
 z [_E,_C_E] z [E,_B,E] z [_D,_A,B,] z [D,A,B,_D] | z [_E,_A,_C] z [E,A,_D] z [E,A,C] z [E,A,_E] | %58
 x [_E,_A,] x [E,A,] x [E,A,] x [E,A,] | (_D,4 _G,,4 | [_C,,_C,]4 [_A,,,_A,,]4) | %61
 ([=G,,,=G,,]4 [_G,,,_G,,]4) | %62
 [F,,,F,,]4 ([E,,,E,,][_E,,,_E,,])!tenuto![D,,,D,,]!tenuto![^C,,,^C,,] | %63
!ped! (^D2 ^C2 ^B,2 C2)!ped-up! | !tenuto!^G,2 !tenuto!E,2 !tenuto!^D,2 !tenuto!^C,2 | %65
!ped!"_Con" x8!ped-up! | x4 [_D,_A,_D]4 | [_A,,_D,_A,]3 z!ped! [_E,=A,]4-!ped-up! | [E,A,]8- | %69
 [E,A,]4 [_E,A,]4 |[M:3/2]!mp! [C,A,C]8!p! !tenuto![C,D,^G,C-]4 |[M:4/4] [C,E,C]8- | %72
[M:3/2] [C,E,C]12 |[M:4/4] z4 !tenuto![F,,D,]4 | !tenuto![F,A,F]8 | !tenuto![E,,B,,D,^G,]8 | z8 | %77
 z4 z2 x2 | x8 | x8 |] %80
V:4
 (C,2 A,,2 B,,2 C,2) | (C,2 A,,2 B,,2 C,2) | (C,2 A,,2 B,,2 C,2) | (D,2 E,2 F,2 D,2) | %4
 (A,,2 G,,2 F,,2 D,,2) | (A,,2 G,,2 F,,2 D,,2) | (A,,2 G,,2 F,,2 D,,2) | (C,,2 C,2 D,2 F,2) | x8 | %9
 x8 | x7 [F,A,] | (C,2 B,,2 A,,2 A,2) | x8 | x8 | x4 x _E, x F, | %15
 [_E,,,_E,,]2 [G,,,G,,]2 [C,,C,]2 x G, | x8 | x8 | x8 | [_A,,_E,]6 x2 | x8 | x8 | x8 | x8 | x8 | %25
 x8 | (C,2 A,,2 B,,2 C,2) | (!tenuto!C,2 A,,2 B,,2 C,2) | (!tenuto!C,2 A,,2 B,,2 C,2) | %29
 (D,2 E,2 F,2 D,2 | A,,2 G,,2 F,,2 D,,2) | (!tenuto!A,,2 B,,2 A,,2 C,2) | (C,2 A,,2 B,,2 C,2) | %33
 x4 (3E,2 F,2 G,2 | x4 _E,4 | x8 | x8 | x8 | x8 | x8 | %40
 !tenuto![_D,,_A,,]4 (3:2:1!tenuto![C,,F,,]2 x8/3 | x8 | x4 [C,,C,]4 | %43
[M:3/2] [_D,,_B,,]4- [D,,B,,]4- [D,,B,,]2 [C,,B,,-]2 | [_D,,B,,]4 [=B,,,=E,,=B,,]4 x4 | %45
 [A,,E,]8- [A,,E,]2 x2 |[M:4/4] x8 | x8 | x8 | x8 | x8 | x8 | (!tenuto!_C,2 _A,,2 _B,,2 C,2) | %53
{/_C,,} (_C,2 _A,,2 _B,,2 C,2) | (_C,,2 _A,,,2 _B,,,2 C,,2) | (_D,,2 _E,,2 _F,,2 D,,2) | %56
 (_A,,2 _G,,2 _F,,2 _D,,2) |{/_A,,,} (_A,,2 _B,,2 A,,2 _C,2) | (_C,2 _A,,2 _B,,2 _C,2) | %59
 x [_F,_A,]2 x5 | x8 | x8 | x8 | [^C,^G,]8 | x8 | x8 | x8 | x4 [_G,,,_D,,_G,,]4- | [G,,,D,,G,,]8- | %69
 [G,,,D,,G,,]4 [F,,,C,,F,,]4 |[M:3/2] [=E,,,=E,,]8 (!tenuto![F,,,F,,]4 |[M:4/4] [E,,,A,,,E,,]8-) | %72
[M:3/2] [E,,,A,,,E,,]12 |[M:4/4] x8 | !tenuto![E,,C,]8 | x8 | x8 | x8 | x8 | x8 |] %80
V:5
 x8 | x8 | x8 | x8 | x8 | x8 | x8 | x8 | x8 | x8 | x8 | x8 | x8 | x8 | x8 | x8 | x8 | x8 | x8 | %19
 [_C_E_c]4 x4 | x8 | x8 | x8 | ([CA]3 [B,EA] [A,EA]4-) | [A,EAc]6 x2 | x8 | x8 | x8 | x8 | x8 | %30
 x8 | x8 | x8 | x8 | x4 _D4 | x4 [_E_A]4 | x8 | x8 | x8 | x8 | x8 | F4 [GB]4 | x8 |[M:3/2] x12 | %44
 x12 | [CE]4- x4 [CE]2 [A,_E]2 |[M:4/4] x8 | [D^GB]8 | x8 | %49
 !tenuto![CEA]3 !tenuto![B,EA] !tenuto![A,EA]4- | [A,EA]6 x2 | x8 | x8 | x8 | x8 | x8 | x8 | x8 | %58
 x8 | x8 | x8 | _F4 [=E_B]4 | [_EA]4 x4 | (^d2 ^c2 ^B2 c2) | x8 | [^C=G]4 [D^F_B]4 | [_B,E_A]4 x4 | %67
 x8 | x8 | x8 |[M:3/2] x12 |[M:4/4] x8 |[M:3/2] x12 |[M:4/4] x8 | x8 | x8 | x8 | x6 [CEA]2- | %78
 [CEA]4 !tenuto![B,EA]2 !tenuto![A,EA]2- | [A,EA]4 x4 |] %80
V:6
 x8 | x8 | x8 | x8 | x8 | x8 | x8 | x8 | x8 | x8 | x8 | x8 | x8 | x8 | x8 | x8 | x8 | x8 | x8 | %19
 x8 | x8 | x8 | x8 | x8 | x8 | x8 | x8 | x8 | x8 | x8 | x8 | x8 | x8 | x4 _B,4 | x8 | x8 | x8 | %37
 x8 | x8 | x8 | x8 | x8 | x8 |[M:3/2] x12 | x12 | x12 |[M:4/4] x8 | x8 | x8 | x8 | x8 | x8 | x8 | %53
 x8 | x8 | x8 | x8 | x8 | x8 | x8 | x8 | x8 | x8 |{/[^C,,,^C,,]} [C,,,C,,]8 | x8 | x8 | x8 | x8 | %68
 x8 | x8 |[M:3/2] x12 |[M:4/4] x8 |[M:3/2] x12 |[M:4/4] x8 | x8 | x8 | x8 | x8 | x8 | x8 |] %80
V:7
 x8 | x8 | x8 | x8 | x8 | x8 | x8 | x8 | x8 | x8 | x8 | x8 | x8 | x8 | x8 | x8 | x8 | x8 | x8 | %19
 x8 | x8 | x8 | x8 | x8 | x8 | x8 | x8 | x8 | x8 | x8 | x8 | x8 | x8 | x4 C,4 | x8 | x8 | x8 | x8 | %38
 x8 | x8 | x8 | x8 | x8 |[M:3/2] x12 | x12 | x12 |[M:4/4] x8 | x8 | x8 | x8 | x8 | x8 | x8 | x8 | %54
 x8 | x8 | x8 | x8 | x8 | x8 | x8 | x8 | x8 | x8 | x8 | x8 | x8 | x8 | x8 | x8 |[M:3/2] x12 | %71
[M:4/4] x8 |[M:3/2] x12 |[M:4/4] x8 | x8 | x8 | x8 | x8 | x8 | x8 |] %80

